X:1
T:Our Fathers’ Church, CMD
T:Our Fathers’ Church, CMD
T:Levi Jenkins Coppin, 1882
T:Public Domain Courtesy of the Cyber Hymnal™
C:Levi Jenkins Coppin, 1882
Z:Public Domain
Z:Courtesy of the Cyber Hymnal™
%%score ( 1 2 ) ( 3 4 )
L:1/8
Q:1/4=105
M:4/4
K:D
V:1 treble 
V:2 treble 
V:3 bass 
V:4 bass 
V:1
 F2 F>E D[CE][DF][GB] | [FA]6 [DF]2 | [DF]3 [CE] D2 [DF]2 | [CE]6 [FA]2 | %4
 [GB]3 [GB] [GB][Bd][Ac][GB] | [FA]6 [DF]2 | [CE]2 [EA]2 [Ec]2 [DB]2 | [CA]6 [FA]2 | %8
 [Fd]3 [Ac] [GB][FA][GB][Gc] | [Fd]6 [GB]2 | [FA]3 [DF] D2 [DF]2 | [CE]6 [FA]2 | %12
 [Fd]3 [Ac] [GB][FA][GB][Gc] | [Fd]6 [GB]2 | A2 [Fd]2 [Ec]2 [Ge]2 | [Fd]6 z2 |] %16
V:2
 F2 F>E D x3 | x8 | x4 D2 x2 | x8 | x8 | x8 | x8 | x8 | x8 | x8 | x4 D2 x2 | x8 | x8 | x8 | A2 x6 | %15
 x8 |] %16
V:3
 z8 | z6 [D,A,]2 | [D,A,]3 [E,A,] [F,A,]2 [D,A,]2 | [A,,A,]6 z2 | z8 | z6 [D,A,]2 | %6
 [A,,A,]2 [C,A,]2 [E,A,]2 [E,^G,]2 | [A,,A,]6 [D,A,]2 | [D,A,]3 [D,D] [D,D][D,D][D,D][D,D] | %9
 [D,D]6 [D,D]2 | [D,D]3 [D,A,] [F,A,]2 [D,A,]2 | [A,,A,]6 [D,A,]2 | %12
 [D,A,]3 [D,D] [D,D][D,D][D,D][D,D] | [D,D]6 [G,D]2 | [F,D]2 [D,A,]2 A,2 [A,,A,]2 | [D,A,]6 z2 |] %16
V:4
 x8 | x8 | x8 | x8 | x8 | x8 | x8 | x8 | x8 | x8 | x8 | x8 | x8 | x8 | x4 A,2 x2 | x8 |] %16

